src/assets/images/prototype/produits-armoire/9-detartrant.svg

<svg width="279" height="746" viewBox="0 0 279 746" fill="none" xmlns="http://www.w3.org/2000/svg">
<path d="M259.08 689.104C256.925 710.63 241.648 729.337 232.969 736C224.29 742.663 48.3499 737.227 43.9688 736C31.4688 732.5 11.4303 716.971 9.77729 686.5C3.25514 566.276 9.93098 267.933 12.4688 257.5C21.4688 220.5 43.9688 185.5 69.6365 168.636C95.3043 151.772 128.594 132.247 142.361 119.434L212.392 71C218.378 83.5568 236.095 118.05 259.08 155.566C287.81 202.462 261.773 662.197 259.08 689.104Z" fill="white" stroke="#81EC40" stroke-width="13"/>
<path d="M141.324 8C147.99 11.5892 163.167 21.5366 170.551 32.612L127.48 54.9166C129.941 48.1483 121.84 29.5355 117.481 21.0751L141.324 8Z" fill="white" stroke="#81EC40" stroke-width="13"/>
<path d="M184.635 26.4687L217.477 78.5384L143.641 121.609L115.183 62.3867C115.183 62.3867 134.337 42.3867 148.909 34.4277C163.481 26.4687 184.635 26.4687 184.635 26.4687Z" fill="white" stroke="#81EC40" stroke-width="13"/>
</svg>

<svg width="279" height="746" fill="none" xmlns="http://www.w3.org/2000/svg"><path d="M259.08 689.104c-2.155 21.526-17.432 40.233-26.111 46.896-8.679 6.663-184.62 1.227-189 0-12.5-3.5-32.539-19.029-34.192-49.5-6.522-120.224.154-418.567 2.692-429 9-37 31.5-72 57.167-88.864 25.668-16.864 58.958-36.389 72.725-49.202L212.392 71c5.986 12.557 23.703 47.05 46.688 84.566 28.73 46.896 2.693 506.631 0 533.538zM141.324 8c6.666 3.59 21.843 13.537 29.227 24.612L127.48 54.917c2.461-6.769-5.64-25.382-9.999-33.842L141.324 8z" fill="#fff" stroke="#81EC40" stroke-width="13"/><path d="M184.635 26.469l32.842 52.07-73.836 43.07-28.458-59.222s19.154-20 33.726-27.96c14.572-7.958 35.726-7.958 35.726-7.958z" fill="#fff" stroke="#81EC40" stroke-width="13"/></svg>
